icon-themes/sifr_svg/cmd/sc_toggleformula.svg

<svg viewBox="0 0 16 16" xmlns="http://www.w3.org/2000/svg"><path d="m7 1c-1.6568542 0-3 1.3431458-3 3v2l-2 1v1h2v4c0 .552285-.4477153 1-1 1s-1-.447715-1-1h-1v2.220703c.5316543.479085 1.2279835.779297 2 .779297 1.6568542 0 3-1.343146 3-3v-4l2-1v-1h-2v-2c0-.5522847.4477153-1 1-1s1 .4477153 1 1h1v-2.2207031c-.5316543-.4790849-1.2279835-.7792969-2-.7792969zm7.5 5c-.37 0-.700469.1503906-.980469.4003906l-3.9687498 3.5996094h1.4492188l3.130859-2.8398438c.151932-.16.239141-.1601562.369141-.1601562h.5v.5c0 .28.22.5.5.5s.5-.22.5-.5v-.5c0-.7-.16-1-1-1zm-6.5 4v1l1.5 1.5-1.5 1.5v1h1l1.5-1.5 1.5 1.5h1v-1l-1.5-1.5 1.5-1.5v-1h-1l-1.5 1.5-1.5-1.5z" fill="#555753"/></svg>

<svg xmlns="http://www.w3.org/2000/svg" viewBox="0 0 16 16">
  <path
     style="fill:#555753"
     d="M 7 1 C 5.3431458 1 4 2.3431458 4 4 L 4 6 L 2 7 L 2 8 L 4 8 L 4 12 C 4 12.552285 3.5522847 13 3 13 C 2.4477153 13 2 12.552285 2 12 L 1 12 L 1 14.220703 C 1.5316543 14.699788 2.2279835 15 3 15 C 4.6568542 15 6 13.656854 6 12 L 6 8 L 8 7 L 8 6 L 6 6 L 6 4 C 6 3.4477153 6.4477153 3 7 3 C 7.5522847 3 8 3.4477153 8 4 L 9 4 L 9 1.7792969 C 8.4683457 1.300212 7.7720165 1 7 1 z M 14.5 6 C 14.13 6 13.799531 6.1503906 13.519531 6.4003906 L 9.5507812 10 L 11 10 L 14.130859 7.1601562 C 14.282791 7.0001562 14.37 7 14.5 7 L 15 7 L 15 7.5 C 15 7.78 15.22 8 15.5 8 C 15.78 8 16 7.78 16 7.5 L 16 7 C 16 6.3 15.84 6 15 6 L 14.5 6 z M 8 10 L 8 11 L 9.5 12.5 L 8 14 L 8 15 L 9 15 L 10.5 13.5 L 12 15 L 13 15 L 13 14 L 11.5 12.5 L 13 11 L 13 10 L 12 10 L 10.5 11.5 L 9 10 L 8 10 z "
     />
</svg>
